X:1
T:When the Kye Come Hame
M:4/4
L:1/8
R:Air
S:Howe – 1000 Jigs and Reels (c. 1867)
Z:AK/Fiddler’s Companion
K:D
(Bc) | (d>cBc) (BAFE) | (F<A) A>B A2 (Bc) | (d>cBc) (BAFE) | (FB) B2c2 (dB) |
(A>Bde) (f2ed) | (e>def) A2 (d>e) | (f>edc) (B<A) (F>E) | F2B2B2 ||
(DE) | (F2A2) (AGF>E) | F2B2B2 (de) | f>edc (BAF>E) | F2A2A2 ||

